; generated by Slic3r 1.2.9 on 2017-03-11 at 09:44:34

; external perimeters extrusion width = 0.50mm
; perimeters extrusion width = 0.58mm
; infill extrusion width = 0.58mm
; solid infill extrusion width = 0.58mm
; top infill extrusion width = 0.58mm
; support material extrusion width = 0.50mm

M107
M190 S65 ; set bed temperature
M104 S200 ; set temperature
G28 ; home all axes
G1 Z5 F5000 ; lift nozzle

M109 S200 ; wait for temperature to be reached
G21 ; set units to millimeters
G90 ; use absolute coordinates
M82 ; use absolute distances for extrusion
G92 E0
G1 Z0.500 F7800.000
G1 E-2.00000 F2400.00000
G92 E0
G1 X78.429 Y68.193 F7800.000
G1 E2.00000 F2400.00000
G1 X78.944 Y67.617 E2.14341 F600.000
G1 X80.133 Y66.428 E2.45550
G1 X80.709 Y65.913 E2.59891
G1 X82.024 Y64.864 E2.91101
G1 X82.655 Y64.417 E3.05443
G1 X84.079 Y63.523 E3.36653
G1 X84.755 Y63.149 E3.50993
G1 X86.271 Y62.419 E3.82203
G1 X86.985 Y62.124 E3.96543
G1 X88.572 Y61.568 E4.27757
G1 X89.315 Y61.354 E4.42095
G1 X90.954 Y60.980 E4.73304
G1 X91.716 Y60.851 E4.87645
G1 X93.388 Y60.662 E5.18859
G1 X94.159 Y60.619 E5.33196
G1 X95.841 Y60.619 E5.64405
G1 X96.613 Y60.662 E5.78747
G1 X98.284 Y60.851 E6.09958 F600.000
G1 X99.046 Y60.980 E6.24297
G1 X100.685 Y61.354 E6.55507
G1 X101.428 Y61.568 E6.69848
G1 X103.015 Y62.124 E7.01058
G1 X103.729 Y62.419 E7.15399
G1 X105.245 Y63.149 E7.46611
G1 X105.921 Y63.523 E7.60949
G1 X107.308 Y64.394 E7.91337
G1 X107.976 Y64.864 E8.06499
G1 X109.291 Y65.913 E8.37709
G1 X109.867 Y66.428 E8.52050
G1 X111.056 Y67.617 E8.83259
G1 X111.571 Y68.193 E8.97600
G1 X112.620 Y69.508 E9.28810
G1 X113.067 Y70.138 E9.43151
G1 X113.963 Y71.562 E9.74360
G1 X114.336 Y72.238 E9.88702
G1 X115.067 Y73.753 E10.19913
G1 X115.362 Y74.467 E10.34252
G1 X115.918 Y76.054 E10.65463
G1 X116.132 Y76.797 E10.79803
G1 X116.507 Y78.437 E11.11013
G1 X116.637 Y79.198 E11.25354
G1 X118.828 Y98.970 E14.94498
G1 X118.893 Y99.988 E15.13436
G1 X118.893 Y102.488 E15.59829
G1 X118.496 Y104.794 E16.03247
G1 X117.350 Y106.834 E16.46665
G1 X115.588 Y108.373 E16.90082
G1 X113.413 Y109.235 E17.33500
G1 X112.000 Y109.381 E17.59855
G1 X78.000 Y109.381 E23.90795
G1 X75.694 Y108.984 E24.34213
G1 X73.654 Y107.838 E24.77631
G1 X72.115 Y106.076 E25.21049
G1 X71.254 Y103.901 E25.64466
G1 X71.107 Y102.488 E25.90821
G1 X71.107 Y99.988 E26.37214
G1 X71.156 Y99.127 E26.53229
G1 X73.363 Y79.198 E30.25298
G1 X73.493 Y78.437 E30.39639
G1 X73.868 Y76.797 E30.70849
G1 X74.082 Y76.054 E30.85190
G1 X74.638 Y74.467 E31.16401
G1 X74.933 Y73.753 E31.30741
G1 X75.664 Y72.238 E31.61950
G1 X76.037 Y71.562 E31.76292
G1 X76.933 Y70.138 E32.07502
G1 X77.380 Y69.508 E32.21842
G1 X78.382 Y68.252 E32.51660
G1 E30.51660 F2400.00000
G92 E0
G1 X77.815 Y102.935 F7800.000
G1 E2.00000 F2400.00000
G1 X77.554 Y102.673 E2.06862 F600.000
G1 X77.554 Y99.978 E2.56866
G1 X77.580 Y99.669 E2.62622
G1 X77.664 Y99.341 E2.68919
G1 X77.824 Y98.998 E2.75934
G1 X77.996 Y98.752 E2.81510
G1 X78.215 Y98.528 E2.87317
G1 X78.510 Y98.312 E2.94097
G1 X78.853 Y98.153 E3.01113
G1 X79.181 Y98.068 E3.07409
G1 X79.490 Y98.042 E3.13164
G1 X85.031 Y98.042 E4.15979
G1 X85.554 Y97.519 E4.29702
G1 X85.554 Y95.942 E4.58962
G1 X85.519 Y95.515 E4.66917
G1 X85.418 Y95.099 E4.74865
G1 X85.249 Y94.705 E4.82813
G1 X84.970 Y94.287 E4.92149
G1 X83.470 Y92.767 E5.31776
G1 X82.406 Y91.432 E5.63450
G1 X81.484 Y89.966 E5.95589
G1 X80.732 Y88.406 E6.27727
G1 X80.152 Y86.747 E6.60329
G1 X79.773 Y85.083 E6.92003
G1 X79.578 Y83.362 E7.24142
G1 X79.579 Y81.605 E7.56744
G1 X79.775 Y79.885 E7.88882
G1 X80.162 Y78.197 E8.21020
G1 X80.735 Y76.563 E8.53158
G1 X81.488 Y75.003 E8.85297
G1 X82.397 Y73.558 E9.16971
G1 X83.476 Y72.203 E9.49109
G1 X84.700 Y70.978 E9.81247
G1 X86.008 Y69.932 E10.12332
G1 X87.540 Y68.962 E10.45981
G1 X89.078 Y68.222 E10.77656
G1 X90.713 Y67.649 E11.09794
G1 X92.401 Y67.262 E11.41932
G1 X94.122 Y67.067 E11.74071
G1 X95.878 Y67.067 E12.06673
G1 X97.599 Y67.262 E12.38811
G1 X99.287 Y67.649 E12.70949
G1 X100.898 Y68.212 E13.02623
G1 X102.460 Y68.962 E13.34762
G1 X103.927 Y69.883 E13.66900
G1 X105.282 Y70.961 E13.99038
G1 X106.508 Y72.185 E14.31176
G1 X107.589 Y73.537 E14.63314
G1 X108.512 Y75.003 E14.95452
G1 X109.265 Y76.563 E15.27591
G1 X109.838 Y78.197 E15.59729
G1 X110.225 Y79.885 E15.91867
G1 X110.421 Y81.605 E16.24006
G1 X110.423 Y83.337 E16.56144
G1 X110.212 Y85.227 E16.91423
G1 X110.183 Y85.276 E16.92495
G1 X109.841 Y86.771 E17.20954
G1 X109.268 Y88.406 E17.53093
G1 X108.516 Y89.966 E17.85231
G1 X107.594 Y91.432 E18.17369
G1 X106.530 Y92.767 E18.49043
G1 X105.030 Y94.287 E18.88671
G1 X104.751 Y94.705 E18.98007
G1 X104.582 Y95.099 E19.05955
G1 X104.481 Y95.515 E19.13903
G1 X104.446 Y95.942 E19.21858
G1 X104.446 Y97.519 E19.51117
G1 X104.969 Y98.042 E19.64841
G1 X110.510 Y98.042 E20.67656
G1 X110.819 Y98.068 E20.73412
G1 X111.147 Y98.153 E20.79707
G1 X111.490 Y98.312 E20.86724
G1 X111.766 Y98.510 E20.93020
G1 X111.979 Y98.722 E20.98597
G1 X112.176 Y98.998 E21.04890
G1 X112.322 Y99.304 E21.11187
G1 X112.413 Y99.631 E21.17485
G1 X112.446 Y99.978 E21.23960
G1 X112.446 Y102.673 E21.73964
G1 X112.185 Y102.935 E21.80826
G1 X77.890 Y102.935 E28.17236
G1 E26.17236 F2400.00000
G92 E0
G1 X111.500 Y101.988 F7800.000
G1 E2.00000 F2400.00000
G1 X78.500 Y101.988 E8.12383 F600.000
G1 X78.500 Y100.010 E8.49092
G1 X78.517 Y99.815 E8.52727
G1 X78.562 Y99.647 E8.55956
G1 X78.636 Y99.489 E8.59184
G1 X78.735 Y99.347 E8.62412
G1 X78.858 Y99.224 E8.65641
G1 X79.001 Y99.124 E8.68870
G1 X79.159 Y99.050 E8.72098
G1 X79.327 Y99.005 E8.75327
G1 X79.522 Y98.988 E8.78962
G1 X85.022 Y98.988 E9.81026
G1 X85.261 Y98.967 E9.85477
G1 X85.514 Y98.900 E9.90335
G1 X85.751 Y98.789 E9.95194
G1 X85.965 Y98.639 E10.00052
G1 X86.151 Y98.454 E10.04910
G1 X86.301 Y98.239 E10.09769
G1 X86.411 Y98.002 E10.14627
G1 X86.479 Y97.749 E10.19485
G1 X86.500 Y97.510 E10.23937
G1 X86.500 Y95.884 E10.54119
G1 X86.452 Y95.318 E10.64645
G1 X86.305 Y94.749 E10.75563
G1 X86.065 Y94.212 E10.86481
G1 X85.736 Y93.718 E10.97500
G1 X84.186 Y92.147 E11.38453
G1 X83.172 Y90.874 E11.68650
G1 X82.307 Y89.497 E11.98818
G1 X81.603 Y88.032 E12.28985
G1 X81.066 Y86.498 E12.59153
G1 X80.705 Y84.912 E12.89321
G1 X80.523 Y83.297 E13.19488
G1 X80.524 Y81.715 E13.48848
G1 X80.706 Y80.055 E13.79832
G1 X81.068 Y78.471 E14.09986
G1 X81.606 Y76.937 E14.40153
G1 X82.311 Y75.472 E14.70321
G1 X83.176 Y74.096 E15.00489
G1 X84.190 Y72.825 E15.30656
G1 X85.340 Y71.676 E15.60824
G1 X86.577 Y70.689 E15.90183
G1 X87.988 Y69.797 E16.21167
G1 X89.452 Y69.092 E16.51321
G1 X90.979 Y68.558 E16.81327
G1 X92.572 Y68.194 E17.11658
G1 X94.187 Y68.012 E17.41823
G1 X95.813 Y68.012 E17.71991
G1 X97.385 Y68.189 E18.01350
G1 X99.014 Y68.556 E18.32334
G1 X100.548 Y69.092 E18.62488
G1 X102.012 Y69.798 E18.92656
G1 X103.389 Y70.662 E19.22824
G1 X104.660 Y71.676 E19.52991
G1 X105.810 Y72.825 E19.83159
G1 X106.824 Y74.096 E20.13326
G1 X107.689 Y75.472 E20.43494
G1 X108.394 Y76.937 E20.73661
G1 X108.932 Y78.471 E21.03829
G1 X109.294 Y80.056 E21.33997
G1 X109.476 Y81.671 E21.64164
G1 X109.477 Y83.297 E21.94332
G1 X109.305 Y84.826 E22.22876
G1 X108.933 Y86.499 E22.54683
G1 X108.397 Y88.032 E22.84824
G1 X107.693 Y89.497 E23.14992
G1 X106.828 Y90.874 E23.45160
G1 X105.814 Y92.147 E23.75357
G1 X104.264 Y93.718 E24.16310
G1 X103.935 Y94.212 E24.27329
G1 X103.695 Y94.749 E24.38247
G1 X103.548 Y95.318 E24.49165
G1 X103.500 Y95.884 E24.59691
G1 X103.500 Y97.510 E24.89873
G1 X103.521 Y97.749 E24.94325
G1 X103.589 Y98.002 E24.99183
G1 X103.699 Y98.239 E25.04041
G1 X103.849 Y98.454 E25.08900
G1 X104.031 Y98.635 E25.13652
G1 X104.248 Y98.788 E25.18594
G1 X104.486 Y98.900 E25.23473
G1 X104.739 Y98.967 E25.28332
G1 X104.978 Y98.988 E25.32783
G1 X110.478 Y98.988 E26.34847
G1 X110.673 Y99.005 E26.38482
G1 X110.836 Y99.049 E26.41604
G1 X111.000 Y99.124 E26.44958
G1 X111.142 Y99.224 E26.48166
G1 X111.265 Y99.347 E26.51394
G1 X111.364 Y99.489 E26.54623
G1 X111.435 Y99.642 E26.57744
G1 X111.483 Y99.816 E26.61099
G1 X111.500 Y100.010 E26.64713
G1 X111.500 Y101.913 E27.00030
G1 X111.067 Y101.738 F7800.000
G1 X110.607 Y101.096 F7800.000
G1 X79.393 Y101.096 E32.79281 F600.000
G1 X79.393 Y99.881 E33.01821
G1 X85.061 Y99.881 E34.07004
G1 X85.416 Y99.850 E34.13628
G1 X85.820 Y99.742 E34.21385
G1 X86.199 Y99.565 E34.29142
G1 X86.541 Y99.325 E34.36899
G1 X86.837 Y99.030 E34.44657
G1 X87.077 Y98.687 E34.52413
G1 X87.253 Y98.308 E34.60169
G1 X87.362 Y97.905 E34.67926
G1 X87.393 Y97.549 E34.74551
G1 X87.393 Y95.846 E35.06154
G1 X87.336 Y95.168 E35.18774
G1 X87.151 Y94.453 E35.32485
G1 X86.849 Y93.778 E35.46196
G1 X86.431 Y93.151 E35.60188
G1 X84.855 Y91.553 E36.01841
G1 X83.901 Y90.357 E36.30231
G1 X83.090 Y89.065 E36.58539
G1 X82.429 Y87.690 E36.86846
G1 X81.925 Y86.250 E37.15153
G1 X81.586 Y84.763 E37.43461
G1 X81.416 Y83.247 E37.71768
G1 X81.416 Y81.764 E37.99291
G1 X81.588 Y80.204 E38.28414
G1 X81.927 Y78.719 E38.56685
G1 X82.432 Y77.279 E38.84992
G1 X83.094 Y75.905 E39.13299
G1 X83.906 Y74.613 E39.41606
G1 X84.857 Y73.421 E39.69914
G1 X85.936 Y72.342 E39.98221
G1 X87.095 Y71.418 E40.25744
G1 X88.422 Y70.579 E40.54868
G1 X89.794 Y69.918 E40.83138
G1 X91.226 Y69.417 E41.11288
G1 X92.722 Y69.075 E41.39759
G1 X94.237 Y68.904 E41.68058
G1 X95.763 Y68.904 E41.96366
G1 X97.237 Y69.071 E42.23889
G1 X98.768 Y69.415 E42.53012
G1 X100.206 Y69.918 E42.81283
G1 X101.580 Y70.580 E43.09590
G1 X102.872 Y71.392 E43.37897
G1 X104.064 Y72.342 E43.66204
G1 X105.143 Y73.421 E43.94512
G1 X106.094 Y74.613 E44.22819
G1 X106.906 Y75.905 E44.51126
G1 X107.568 Y77.279 E44.79433
G1 X108.073 Y78.719 E45.07741
G1 X108.412 Y80.206 E45.36048
G1 X108.583 Y81.722 E45.64355
G1 X108.584 Y83.247 E45.92662
G1 X108.423 Y84.679 E46.19393
G1 X108.073 Y86.254 E46.49340
G1 X107.571 Y87.690 E46.77574
G1 X106.910 Y89.065 E47.05881
G1 X106.099 Y90.357 E47.34189
G1 X105.145 Y91.553 E47.62580
G1 X103.569 Y93.151 E48.04232
G1 X103.151 Y93.778 E48.18224
G1 X102.849 Y94.453 E48.31936
G1 X102.664 Y95.168 E48.45647
G1 X102.607 Y95.846 E48.58267
G1 X102.607 Y97.549 E48.89870
G1 X102.638 Y97.905 E48.96494
G1 X102.747 Y98.308 E49.04251
G1 X102.923 Y98.687 E49.12007
G1 X103.163 Y99.030 E49.19764
G1 X103.453 Y99.320 E49.27378
G1 X103.798 Y99.564 E49.35219
G1 X104.180 Y99.742 E49.43034
G1 X104.584 Y99.850 E49.50791
G1 X104.939 Y99.881 E49.57415
G1 X110.607 Y99.881 E50.62598
G1 X110.607 Y101.021 E50.83746
G1 X103.074 Y100.203 F7800.000
G1 X86.926 Y100.203 E53.83394 F600.000
G1 X87.523 Y99.606 E53.99067
G1 X87.853 Y99.135 E54.09722
G1 X88.095 Y98.615 E54.20376
G1 X88.244 Y98.060 E54.31032
G1 X88.285 Y97.588 E54.39829
G1 X88.285 Y95.808 E54.72853
G1 X88.219 Y95.018 E54.87566
G1 X87.997 Y94.157 E55.04070
G1 X87.634 Y93.345 E55.20575
G1 X87.126 Y92.585 E55.37540
G1 X86.970 Y92.426 E55.41671
G1 X87.287 Y92.053 E55.50764
G1 X88.614 Y92.990 E55.80913
G1 X90.103 Y93.761 E56.12042
G1 X91.684 Y94.323 E56.43171
G1 X93.326 Y94.664 E56.74301
G1 X95.000 Y94.779 E57.05430
G1 X96.674 Y94.664 E57.36560
G1 X98.316 Y94.323 E57.67689
G1 X99.897 Y93.761 E57.98819
G1 X101.386 Y92.990 E58.29948
G1 X102.713 Y92.053 E58.60096
G1 X103.030 Y92.426 E58.69190
G1 X102.874 Y92.585 E58.73321
G1 X102.366 Y93.345 E58.90286
G1 X102.003 Y94.157 E59.06791
G1 X101.781 Y95.018 E59.23295
G1 X101.715 Y95.808 E59.38009
G1 X101.715 Y97.588 E59.71032
G1 X101.756 Y98.060 E59.79828
G1 X101.905 Y98.615 E59.90484
G1 X102.147 Y99.135 E60.01139
G1 X102.477 Y99.606 E60.11795
G1 X103.021 Y100.150 E60.26075
G1 X99.184 Y92.120 F7800.000
G1 X97.833 Y92.600 E60.52672 F600.000
G1 X96.430 Y92.892 E60.79269
G1 X95.000 Y92.989 E61.05866
G1 X93.570 Y92.892 E61.32463
G1 X92.167 Y92.600 E61.59060
G1 X90.816 Y92.120 E61.85657
G1 X89.544 Y91.461 E62.12253
G1 X88.373 Y90.634 E62.38850
G1 X87.325 Y89.656 E62.65447
G1 X86.421 Y88.544 E62.92044
G1 X85.676 Y87.319 E63.18641
G1 X85.105 Y86.005 E63.45238
G1 X84.718 Y84.625 E63.71835
G1 X84.523 Y83.205 E63.98432
G1 X84.523 Y81.772 E64.25029
G1 X84.718 Y80.352 E64.51626
G1 X85.105 Y78.972 E64.78222
G1 X85.676 Y77.657 E65.04819
G1 X86.421 Y76.432 E65.31416
G1 X87.325 Y75.321 E65.58013
G1 X88.373 Y74.342 E65.84610
G1 X89.544 Y73.516 E66.11207
G1 X90.816 Y72.856 E66.37804
G1 X92.167 Y72.376 E66.64401
G1 X93.570 Y72.085 E66.90998
G1 X93.831 Y72.067 E66.95854
G1 X95.000 Y71.987 E67.17595 F600.000
G1 X96.430 Y72.085 E67.44192
G1 X97.833 Y72.376 E67.70789
G1 X99.184 Y72.856 E67.97385
G1 X100.456 Y73.516 E68.23982
G1 X101.627 Y74.342 E68.50579
G1 X102.675 Y75.321 E68.77176
G1 X102.840 Y75.524 E68.82032
G1 X103.579 Y76.432 E69.03773
G1 X104.324 Y77.657 E69.30370
G1 X104.895 Y78.972 E69.56967
G1 X105.282 Y80.352 E69.83564
G1 X105.477 Y81.772 E70.10161
G1 X105.477 Y83.205 E70.36758
G1 X105.441 Y83.464 E70.41614
G1 X105.282 Y84.625 E70.63354
G1 X104.895 Y86.005 E70.89951
G1 X104.324 Y87.319 E71.16548
G1 X103.579 Y88.544 E71.43145
G1 X102.675 Y89.656 E71.69742
G1 X101.627 Y90.634 E71.96339
G1 X100.456 Y91.461 E72.22936
G1 X99.250 Y92.085 E72.48141
G1 X99.116 Y92.615 F7800.000
G1 X99.594 Y92.913 F7800.000
G1 X98.075 Y93.462 E72.78127 F600.000
G1 X96.552 Y93.778 E73.06990
G1 X95.000 Y93.884 E73.35853
G1 X93.448 Y93.778 E73.64717
G1 X91.925 Y93.462 E73.93580
G1 X90.460 Y92.941 E74.22443
G1 X89.079 Y92.225 E74.51306
G1 X87.808 Y91.328 E74.80169
G1 X86.671 Y90.267 E75.09032
G1 X85.690 Y89.060 E75.37896
G1 X84.882 Y87.731 E75.66759
G1 X84.262 Y86.304 E75.95622
G1 X83.842 Y84.807 E76.24485
G1 X83.631 Y83.266 E76.53348
G1 X83.631 Y81.711 E76.82211
G1 X83.842 Y80.170 E77.11075
G1 X84.262 Y78.672 E77.39938
G1 X84.882 Y77.245 E77.68801
G1 X85.690 Y75.916 E77.97664
G1 X86.671 Y74.710 E78.26527
G1 X87.808 Y73.648 E78.55391
G1 X89.079 Y72.751 E78.84254
G1 X90.460 Y72.036 E79.13117
G1 X91.925 Y71.515 E79.41980
G1 X93.448 Y71.198 E79.70843
G1 X93.770 Y71.176 E79.76832
G1 X95.000 Y71.092 E79.99706 F600.000
G1 X96.552 Y71.198 E80.28570
G1 X98.075 Y71.515 E80.57433
G1 X99.540 Y72.036 E80.86296
G1 X100.921 Y72.751 E81.15159
G1 X102.192 Y73.648 E81.44022
G1 X103.329 Y74.710 E81.72886
G1 X104.310 Y75.916 E82.01749
G1 X105.118 Y77.245 E82.30612
G1 X105.738 Y78.672 E82.59475
G1 X106.158 Y80.170 E82.88338
G1 X106.369 Y81.711 E83.17202
G1 X106.369 Y83.266 E83.46065
G1 X106.325 Y83.586 E83.52054
G1 X106.158 Y84.807 E83.74928
G1 X105.738 Y86.304 E84.03791
G1 X105.118 Y87.731 E84.32654
G1 X104.310 Y89.060 E84.61517
G1 X103.329 Y90.267 E84.90380
G1 X102.192 Y91.328 E85.19244
G1 X100.921 Y92.225 E85.48107
G1 X99.661 Y92.878 E85.74445
G1 X101.494 Y94.099 F7800.000
G1 X101.085 Y93.690 E85.85547 F600.000
G1 X100.225 Y94.136 E86.04166
G1 X101.234 Y95.146 E86.31591
G1 X101.165 Y96.383 E86.55396
G1 X99.287 Y94.505 E87.06402
G1 X98.323 Y94.848 E87.26058
G1 X101.165 Y97.690 E88.03260
G1 X101.546 Y99.377 E88.36484
G1 X97.241 Y95.072 E89.53414
G1 X96.104 Y95.242 E89.75501
G1 X100.515 Y99.653 E90.95336
G1 X99.209 Y99.653 E91.20433
G1 X94.881 Y95.325 E92.37996
G1 X93.488 Y95.240 E92.64789
G1 X97.902 Y99.653 E93.84678
G1 X96.595 Y99.653 E94.09776
G1 X91.918 Y94.976 E95.36814
G1 X90.034 Y94.399 E95.74668
G1 X95.289 Y99.653 E97.17397
G1 X93.982 Y99.653 E97.42494
G1 X88.665 Y94.337 E98.86909
G1 X88.835 Y95.813 E99.15445
G1 X92.675 Y99.653 E100.19766
G1 X91.369 Y99.653 E100.44863
G1 X88.835 Y97.119 E101.13691
G1 X88.705 Y98.297 E101.36440
G1 X90.062 Y99.653 E101.73290
G1 X88.755 Y99.653 E101.98387
G1 X88.342 Y99.240 E102.09626
G1 X86.589 Y99.870 F7800.000
G1 X86.029 Y100.282 E102.22520 F600.000
G1 X85.761 Y100.438 E102.28271
G1 X85.541 Y100.467 E102.32388
G1 X85.080 Y100.488 E102.40953
G1 X79.839 Y100.488 E103.38215
G1 E101.38215 F2400.00000
G92 E0
