; generated by Slic3r 1.2.9 on 2017-06-17 at 19:22:09

; external perimeters extrusion width = 0.50mm
; perimeters extrusion width = 0.85mm
; infill extrusion width = 1.02mm
; solid infill extrusion width = 0.85mm
; top infill extrusion width = 0.85mm

M107
M104 S200 ; set temperature
G28 ; home all axes
G1 Z5 F5000 ; lift nozzle

M109 S200 ; wait for temperature to be reached
G21 ; set units to millimeters
G90 ; use absolute coordinates
M82 ; use absolute distances for extrusion
G92 E0
G1 Z0.500 F7800.000
G1 E-2.00000 F2400.00000
G92 E0
G1 X46.412 Y89.115 F7800.000
G1 E2.00000 F2400.00000
G1 X48.587 Y88.254 E2.43418 F1800.000
G1 X50.000 Y88.107 E2.69773
G1 X150.000 Y88.107 E21.25478
G1 X152.306 Y88.504 E21.68896
G1 X154.346 Y89.650 E22.12314 F1800.000
G1 X155.885 Y91.412 E22.55732
G1 X156.746 Y93.587 E22.99150
G1 X156.893 Y95.000 E23.25505
G1 X156.893 Y105.000 E25.11075
G1 X156.496 Y107.306 E25.54493
G1 X155.350 Y109.346 E25.97911
G1 X153.588 Y110.885 E26.41329
G1 X151.413 Y111.746 E26.84746
G1 X150.000 Y111.893 E27.11101
G1 X50.000 Y111.893 E45.66807
G1 X47.694 Y111.496 E46.10225
G1 X45.654 Y110.350 E46.53643
G1 X44.115 Y108.588 E46.97060
G1 X43.254 Y106.413 E47.40478
G1 X43.107 Y105.000 E47.66833
G1 X43.107 Y95.000 E49.52404
G1 X43.504 Y92.694 E49.95822
G1 X44.650 Y90.654 E50.39239
G1 X46.355 Y89.164 E50.81265
G1 E48.81265 F2400.00000
G92 E0
G1 X52.285 Y102.715 F7800.000
G1 E2.00000 F2400.00000
G1 X52.285 Y97.285 E3.00750 F1800.000
G1 X147.715 Y97.285 E20.71635
G1 X147.715 Y102.715 E21.72385
G1 X52.360 Y102.715 E39.41879
G1 X51.393 Y103.607 F7800.000
G1 X51.393 Y96.393 E40.75760 F1800.000
G1 X148.607 Y96.393 E58.79777
G1 X148.607 Y103.607 E60.13659
G1 X51.468 Y103.607 E78.16284
G1 X50.500 Y104.500 F7800.000
G1 X50.500 Y95.500 E79.83298 F1800.000
G1 X149.500 Y95.500 E98.20446
G1 X149.500 Y104.500 E99.87460
G1 X50.575 Y104.500 E118.23217
G1 X50.750 Y104.067 F7800.000
G1 X53.254 Y102.165 F7800.000
G1 X52.835 Y101.746 E118.34275 F1800.000
G1 X52.835 Y100.476 E118.57999
G1 X54.524 Y102.165 E119.02609
G1 X55.794 Y102.165 E119.26333
G1 X52.835 Y99.206 E120.04494
G1 X52.835 Y97.935 E120.28218
G1 X57.065 Y102.165 E121.39930
G1 X58.335 Y102.165 E121.63654
G1 X54.005 Y97.835 E122.78016
G1 X55.275 Y97.835 E123.01741
G1 X59.606 Y102.165 E124.16103
G1 X60.876 Y102.165 E124.39827
G1 X56.546 Y97.835 E125.54189
G1 X57.816 Y97.835 E125.77914
G1 X62.147 Y102.165 E126.92276
G1 X63.417 Y102.165 E127.16000
G1 X59.087 Y97.835 E128.30363
G1 X60.357 Y97.835 E128.54087
G1 X64.687 Y102.165 E129.68449
G1 X65.958 Y102.165 E129.92173
G1 X61.627 Y97.835 E131.06536
G1 X62.898 Y97.835 E131.30260
G1 X67.228 Y102.165 E132.44622
G1 X68.499 Y102.165 E132.68347
G1 X64.168 Y97.835 E133.82709
G1 X65.439 Y97.835 E134.06433
G1 X69.769 Y102.165 E135.20795
G1 X71.040 Y102.165 E135.44520
G1 X66.709 Y97.835 E136.58882
G1 X67.980 Y97.835 E136.82606
G1 X72.310 Y102.165 E137.96969
G1 X73.580 Y102.165 E138.20693
G1 X69.250 Y97.835 E139.35055
G1 X70.520 Y97.835 E139.58779
G1 X74.851 Y102.165 E140.73142
G1 X76.121 Y102.165 E140.96866
G1 X71.791 Y97.835 E142.11228
G1 X73.061 Y97.835 E142.34952
G1 X77.392 Y102.165 E143.49315
G1 X78.662 Y102.165 E143.73039
G1 X74.332 Y97.835 E144.87401
G1 X75.602 Y97.835 E145.11126
G1 X79.933 Y102.165 E146.25488
G1 X81.203 Y102.165 E146.49212
G1 X76.873 Y97.835 E147.63574
G1 X78.143 Y97.835 E147.87299
G1 X82.473 Y102.165 E149.01661
G1 X83.744 Y102.165 E149.25385
G1 X79.414 Y97.835 E150.39748
G1 X80.684 Y97.835 E150.63472
G1 X85.014 Y102.165 E151.77834
G1 X86.285 Y102.165 E152.01558
G1 X81.954 Y97.835 E153.15921
G1 X83.225 Y97.835 E153.39645
G1 X87.555 Y102.165 E154.54007
G1 X88.826 Y102.165 E154.77731
G1 X84.495 Y97.835 E155.92094
G1 X85.766 Y97.835 E156.15818
G1 X90.096 Y102.165 E157.30180
G1 X91.367 Y102.165 E157.53905
G1 X87.036 Y97.835 E158.68267
G1 X88.307 Y97.835 E158.91991
G1 X92.637 Y102.165 E160.06354
G1 X93.907 Y102.165 E160.30078
G1 X89.577 Y97.835 E161.44440
G1 X90.847 Y97.835 E161.68164
G1 X95.178 Y102.165 E162.82527
G1 X96.448 Y102.165 E163.06251
G1 X92.118 Y97.835 E164.20613
G1 X93.388 Y97.835 E164.44337
G1 X97.719 Y102.165 E165.58700
G1 X98.989 Y102.165 E165.82424
G1 X94.659 Y97.835 E166.96786
G1 X95.929 Y97.835 E167.20511
G1 X100.260 Y102.165 E168.34873
G1 X101.530 Y102.165 E168.58597
G1 X97.200 Y97.835 E169.72960
G1 X98.470 Y97.835 E169.96684
G1 X102.800 Y102.165 E171.11046
G1 X104.071 Y102.165 E171.34770
G1 X99.740 Y97.835 E172.49133
G1 X101.011 Y97.835 E172.72857
G1 X105.341 Y102.165 E173.87219
G1 X106.612 Y102.165 E174.10943
G1 X102.281 Y97.835 E175.25306
G1 X103.552 Y97.835 E175.49030
G1 X107.882 Y102.165 E176.63392
G1 X109.153 Y102.165 E176.87117
G1 X104.822 Y97.835 E178.01479
G1 X106.093 Y97.835 E178.25203
G1 X110.423 Y102.165 E179.39565
G1 X111.693 Y102.165 E179.63290
G1 X107.363 Y97.835 E180.77652
G1 X108.633 Y97.835 E181.01376
G1 X112.964 Y102.165 E182.15739
G1 X114.234 Y102.165 E182.39463
G1 X109.904 Y97.835 E183.53825
G1 X111.174 Y97.835 E183.77549
G1 X115.505 Y102.165 E184.91912
G1 X116.775 Y102.165 E185.15636
G1 X112.445 Y97.835 E186.29998
G1 X113.715 Y97.835 E186.53722
G1 X118.046 Y102.165 E187.68085
G1 X119.316 Y102.165 E187.91809
G1 X114.986 Y97.835 E189.06171
G1 X116.256 Y97.835 E189.29895
G1 X120.586 Y102.165 E190.44258
G1 X121.857 Y102.165 E190.67982
G1 X117.527 Y97.835 E191.82344
G1 X118.797 Y97.835 E192.06069
G1 X123.127 Y102.165 E193.20431
G1 X124.398 Y102.165 E193.44155
G1 X120.067 Y97.835 E194.58517
G1 X121.338 Y97.835 E194.82242
G1 X125.668 Y102.165 E195.96604
G1 X126.939 Y102.165 E196.20328
G1 X122.608 Y97.835 E197.34691
G1 X123.879 Y97.835 E197.58415
G1 X128.209 Y102.165 E198.72777
G1 X129.479 Y102.165 E198.96501
G1 X125.149 Y97.835 E200.10864
G1 X126.420 Y97.835 E200.34588
G1 X130.750 Y102.165 E201.48950
G1 X132.020 Y102.165 E201.72674
G1 X127.690 Y97.835 E202.87037
G1 X128.960 Y97.835 E203.10761
G1 X133.291 Y102.165 E204.25123
G1 X134.561 Y102.165 E204.48848
G1 X130.231 Y97.835 E205.63210
G1 X131.501 Y97.835 E205.86934
G1 X135.832 Y102.165 E207.01296
G1 X137.102 Y102.165 E207.25021
G1 X132.772 Y97.835 E208.39383
G1 X134.042 Y97.835 E208.63107
G1 X138.373 Y102.165 E209.77470
G1 X139.643 Y102.165 E210.01194
G1 X135.313 Y97.835 E211.15556
G1 X136.583 Y97.835 E211.39280
G1 X140.913 Y102.165 E212.53643
G1 X142.184 Y102.165 E212.77367
G1 X137.853 Y97.835 E213.91729
G1 X139.124 Y97.835 E214.15454
G1 X143.454 Y102.165 E215.29816
G1 X144.725 Y102.165 E215.53540
G1 X140.394 Y97.835 E216.67902
G1 X141.665 Y97.835 E216.91627
G1 X145.995 Y102.165 E218.05989
G1 X147.165 Y102.065 E218.27919
G1 X142.935 Y97.835 E219.39631
G1 X144.206 Y97.835 E219.63356
G1 X147.165 Y100.794 E220.41517
G1 X147.165 Y99.524 E220.65241
G1 X145.476 Y97.835 E221.09851
G1 X146.746 Y97.835 E221.33575
G1 X147.165 Y98.254 E221.44633
G1 Z0.700 F7800.000
G1 X51.689 Y103.311 F7800.000
G1 X51.689 Y96.689 E221.89071 F3600.000
G1 X148.311 Y96.689 E228.37489
G1 X148.311 Y103.311 E228.81926
G1 X51.764 Y103.311 E235.29841
G1 X50.882 Y104.118 F7800.000
G1 X50.882 Y95.882 E235.85111 F3600.000
G1 X149.118 Y95.882 E242.44361
G1 X149.118 Y104.118 E242.99631
G1 X50.957 Y104.118 E249.58378
G1 X50.250 Y104.750 F7800.000
G1 X50.250 Y95.250 E249.94484 F1800.000
G1 X149.750 Y95.250 E253.72647
G1 X149.750 Y104.750 E254.08753
G1 X50.325 Y104.750 E257.86631
G1 X50.500 Y104.317 F7800.000
G1 X52.566 Y97.184 F7800.000
G1 X52.184 Y97.566 E257.90261 F1200.000
G1 X52.184 Y98.708 E257.97930
G1 X53.708 Y97.184 E258.12405
G1 X54.850 Y97.184 E258.20074
G1 X52.184 Y99.850 E258.45394
G1 X52.184 Y100.992 E258.53063
G1 X55.992 Y97.184 E258.89228
G1 X57.134 Y97.184 E258.96897
G1 X52.184 Y102.134 E259.43907
G1 X52.644 Y102.816 E259.49430
G1 X58.276 Y97.184 E260.02913
G1 X59.419 Y97.184 E260.10582
G1 X53.786 Y102.816 E260.64065
G1 X54.928 Y102.816 E260.71733
G1 X60.561 Y97.184 E261.25216
G1 X61.703 Y97.184 E261.32885
G1 X56.070 Y102.816 E261.86368
G1 X57.213 Y102.816 E261.94036
G1 X62.845 Y97.184 E262.47519
G1 X63.987 Y97.184 E262.55188
G1 X58.355 Y102.816 E263.08671
G1 X59.497 Y102.816 E263.16339
G1 X65.129 Y97.184 E263.69822
G1 X66.271 Y97.184 E263.77491
G1 X60.639 Y102.816 E264.30974
G1 X61.781 Y102.816 E264.38642
G1 X67.413 Y97.184 E264.92125
G1 X68.555 Y97.184 E264.99794
G1 X62.923 Y102.816 E265.53277
G1 X64.065 Y102.816 E265.60945
G1 X69.697 Y97.184 E266.14428
G1 X70.839 Y97.184 E266.22097
G1 X65.207 Y102.816 E266.75580
G1 X66.349 Y102.816 E266.83248
G1 X71.981 Y97.184 E267.36731
G1 X73.123 Y97.184 E267.44400
G1 X67.491 Y102.816 E267.97883
G1 X68.633 Y102.816 E268.05551
G1 X74.265 Y97.184 E268.59034
G1 X75.407 Y97.184 E268.66703
G1 X69.775 Y102.816 E269.20186
G1 X70.917 Y102.816 E269.27854
G1 X76.549 Y97.184 E269.81337
G1 X77.691 Y97.184 E269.89006
G1 X72.059 Y102.816 E270.42489
G1 X73.201 Y102.816 E270.50157
G1 X78.833 Y97.184 E271.03640
G1 X79.975 Y97.184 E271.11309
G1 X74.343 Y102.816 E271.64791
G1 X75.485 Y102.816 E271.72460
G1 X81.117 Y97.184 E272.25943
G1 X82.259 Y97.184 E272.33611
G1 X76.627 Y102.816 E272.87094
G1 X77.769 Y102.816 E272.94763
G1 X83.401 Y97.184 E273.48246
G1 X84.543 Y97.184 E273.55914
G1 X78.911 Y102.816 E274.09397
G1 X80.053 Y102.816 E274.17066
G1 X85.685 Y97.184 E274.70549
G1 X86.827 Y97.184 E274.78217
G1 X81.195 Y102.816 E275.31700
G1 X82.337 Y102.816 E275.39369
G1 X87.969 Y97.184 E275.92852
G1 X89.112 Y97.184 E276.00520
G1 X83.479 Y102.816 E276.54003
G1 X84.621 Y102.816 E276.61672
G1 X90.254 Y97.184 E277.15155
G1 X91.396 Y97.184 E277.22823
G1 X85.764 Y102.816 E277.76306
G1 X86.906 Y102.816 E277.83975
G1 X92.538 Y97.184 E278.37458
G1 X93.680 Y97.184 E278.45126
G1 X88.048 Y102.816 E278.98609
G1 X89.190 Y102.816 E279.06278
G1 X94.822 Y97.184 E279.59761
G1 X95.964 Y97.184 E279.67429
G1 X90.332 Y102.816 E280.20912
G1 X91.474 Y102.816 E280.28581
G1 X97.106 Y97.184 E280.82064
G1 X98.248 Y97.184 E280.89732
G1 X92.616 Y102.816 E281.43215
G1 X93.758 Y102.816 E281.50884
G1 X99.390 Y97.184 E282.04367
G1 X100.532 Y97.184 E282.12035
G1 X94.900 Y102.816 E282.65518
G1 X96.042 Y102.816 E282.73187
G1 X101.674 Y97.184 E283.26670
G1 X102.816 Y97.184 E283.34338
G1 X97.184 Y102.816 E283.87821
G1 X98.326 Y102.816 E283.95490
G1 X103.958 Y97.184 E284.48973
G1 X105.100 Y97.184 E284.56641
G1 X99.468 Y102.816 E285.10124
G1 X100.610 Y102.816 E285.17793
G1 X106.242 Y97.184 E285.71276
G1 X107.384 Y97.184 E285.78944
G1 X101.752 Y102.816 E286.32427
G1 X102.894 Y102.816 E286.40096
G1 X108.526 Y97.184 E286.93579
G1 X109.668 Y97.184 E287.01247
G1 X104.036 Y102.816 E287.54730
G1 X105.178 Y102.816 E287.62399
G1 X110.810 Y97.184 E288.15881
G1 X111.952 Y97.184 E288.23550
G1 X106.320 Y102.816 E288.77033
G1 X107.462 Y102.816 E288.84701
G1 X113.094 Y97.184 E289.38184
G1 X114.236 Y97.184 E289.45853
G1 X108.604 Y102.816 E289.99336
G1 X109.746 Y102.816 E290.07004
G1 X115.378 Y97.184 E290.60487
G1 X116.520 Y97.184 E290.68156
G1 X110.888 Y102.816 E291.21639
G1 X112.030 Y102.816 E291.29307
G1 X117.663 Y97.184 E291.82790
G1 X118.805 Y97.184 E291.90459
G1 X113.172 Y102.816 E292.43942
G1 X114.314 Y102.816 E292.51610
G1 X119.947 Y97.184 E293.05093
G1 X121.089 Y97.184 E293.12762
G1 X115.457 Y102.816 E293.66245
G1 X116.599 Y102.816 E293.73913
G1 X122.231 Y97.184 E294.27396
G1 X123.373 Y97.184 E294.35065
G1 X117.741 Y102.816 E294.88548
G1 X118.883 Y102.816 E294.96216
G1 X124.515 Y97.184 E295.49699
G1 X125.657 Y97.184 E295.57368
G1 X120.025 Y102.816 E296.10851
G1 X121.167 Y102.816 E296.18519
G1 X126.799 Y97.184 E296.72002
G1 X127.941 Y97.184 E296.79671
G1 X122.309 Y102.816 E297.33154
G1 X123.451 Y102.816 E297.40822
G1 X129.083 Y97.184 E297.94305
G1 X130.225 Y97.184 E298.01974
G1 X124.593 Y102.816 E298.55457
G1 X125.735 Y102.816 E298.63125
G1 X131.367 Y97.184 E299.16608
G1 X132.509 Y97.184 E299.24277
G1 X126.877 Y102.816 E299.77760
G1 X128.019 Y102.816 E299.85428
G1 X133.651 Y97.184 E300.38911
G1 X134.793 Y97.184 E300.46580
G1 X129.161 Y102.816 E301.00063
G1 X130.303 Y102.816 E301.07731
G1 X135.935 Y97.184 E301.61214
G1 X137.077 Y97.184 E301.68883
G1 X131.445 Y102.816 E302.22366
G1 X132.587 Y102.816 E302.30034
G1 X138.219 Y97.184 E302.83517
G1 X139.361 Y97.184 E302.91186
G1 X133.729 Y102.816 E303.44668
G1 X134.871 Y102.816 E303.52337
G1 X140.503 Y97.184 E304.05820
G1 X141.645 Y97.184 E304.13489
G1 X136.013 Y102.816 E304.66971
G1 X137.155 Y102.816 E304.74640
G1 X142.787 Y97.184 E305.28123
G1 X143.929 Y97.184 E305.35791
G1 X138.297 Y102.816 E305.89274
G1 X139.439 Y102.816 E305.96943
G1 X145.071 Y97.184 E306.50426
G1 X146.213 Y97.184 E306.58094
G1 X140.581 Y102.816 E307.11577
G1 X141.723 Y102.816 E307.19246
G1 X147.356 Y97.184 E307.72729
G1 X147.816 Y97.865 E307.78252
G1 X142.865 Y102.816 E308.25263
G1 X144.008 Y102.816 E308.32932
G1 X147.816 Y99.008 E308.69098
G1 X147.816 Y100.150 E308.76766
G1 X145.150 Y102.816 E309.02088
G1 X146.292 Y102.816 E309.09756
G1 X147.816 Y101.292 E309.24232
G1 X147.816 Y102.434 E309.31901
G1 X147.434 Y102.816 E309.35532
G1 Z0.900 F7800.000
G1 X51.689 Y103.311 F7800.000
G1 X51.689 Y96.689 E309.79970 F3600.000
G1 X148.311 Y96.689 E316.28388
G1 X148.311 Y103.311 E316.72825
G1 X51.764 Y103.311 E323.20740
G1 X50.882 Y104.118 F7800.000
G1 X50.882 Y95.882 E323.76010 F3600.000
G1 X149.118 Y95.882 E330.35260
G1 X149.118 Y104.118 E330.90530
G1 X50.957 Y104.118 E337.49277
G1 X50.250 Y104.750 F7800.000
G1 X50.250 Y95.250 E337.85383 F1800.000
G1 X149.750 Y95.250 E341.63546
G1 X149.750 Y104.750 E341.99652
G1 X50.325 Y104.750 E345.77530
G1 X50.500 Y104.317 F7800.000
G1 X52.184 Y102.434 F7800.000
G1 X52.566 Y102.816 E345.81160 F1200.000
G1 X53.708 Y102.816 E345.88829
G1 X52.184 Y101.292 E346.03304
G1 X52.184 Y100.150 E346.10973
G1 X54.850 Y102.816 E346.36293
G1 X55.992 Y102.816 E346.43962
G1 X52.184 Y99.008 E346.80127
G1 X52.184 Y97.866 E346.87796
G1 X57.134 Y102.816 E347.34806
G1 X58.276 Y102.816 E347.42475
G1 X52.644 Y97.184 E347.95958
G1 X53.786 Y97.184 E348.03626
G1 X59.419 Y102.816 E348.57109
G1 X60.561 Y102.816 E348.64778
G1 X54.928 Y97.184 E349.18261
G1 X56.070 Y97.184 E349.25929
G1 X61.703 Y102.816 E349.79412
G1 X62.845 Y102.816 E349.87081
G1 X57.213 Y97.184 E350.40564
G1 X58.355 Y97.184 E350.48232
G1 X63.987 Y102.816 E351.01715
G1 X65.129 Y102.816 E351.09384
G1 X59.497 Y97.184 E351.62867
G1 X60.639 Y97.184 E351.70535
G1 X66.271 Y102.816 E352.24018
G1 X67.413 Y102.816 E352.31687
G1 X61.781 Y97.184 E352.85169
G1 X62.923 Y97.184 E352.92838
G1 X68.555 Y102.816 E353.46321
G1 X69.697 Y102.816 E353.53989
G1 X64.065 Y97.184 E354.07472
G1 X65.207 Y97.184 E354.15141
G1 X70.839 Y102.816 E354.68624
G1 X71.981 Y102.816 E354.76292
G1 X66.349 Y97.184 E355.29775
G1 X67.491 Y97.184 E355.37444
G1 X73.123 Y102.816 E355.90927
G1 X74.265 Y102.816 E355.98595
G1 X68.633 Y97.184 E356.52078
G1 X69.775 Y97.184 E356.59747
G1 X75.407 Y102.816 E357.13230
G1 X76.549 Y102.816 E357.20898
G1 X70.917 Y97.184 E357.74381
G1 X72.059 Y97.184 E357.82050
G1 X77.691 Y102.816 E358.35533
G1 X78.833 Y102.816 E358.43201
G1 X73.201 Y97.184 E358.96684
G1 X74.343 Y97.184 E359.04353
G1 X79.975 Y102.816 E359.57836
G1 X81.117 Y102.816 E359.65504
G1 X75.485 Y97.184 E360.18987
G1 X76.627 Y97.184 E360.26656
G1 X82.259 Y102.816 E360.80139
G1 X83.401 Y102.816 E360.87807
G1 X77.769 Y97.184 E361.41290
G1 X78.911 Y97.184 E361.48959
G1 X84.543 Y102.816 E362.02442
G1 X85.685 Y102.816 E362.10110
G1 X80.053 Y97.184 E362.63593
G1 X81.195 Y97.184 E362.71262
G1 X86.827 Y102.816 E363.24745
G1 X87.969 Y102.816 E363.32413
G1 X82.337 Y97.184 E363.85896
G1 X83.479 Y97.184 E363.93565
G1 X89.112 Y102.816 E364.47048
G1 X90.254 Y102.816 E364.54716
G1 X84.621 Y97.184 E365.08199
G1 X85.764 Y97.184 E365.15868
