; generated by Slic3r 1.2.9 on 2017-06-17 at 19:38:37

; external perimeters extrusion width = 0.50mm
; perimeters extrusion width = 0.85mm
; infill extrusion width = 1.02mm
; solid infill extrusion width = 0.85mm
; top infill extrusion width = 0.85mm
; support material extrusion width = 0.50mm

M107
M104 S200 ; set temperature
G28 ; home all axes
G1 Z5 F5000 ; lift nozzle

M109 S200 ; wait for temperature to be reached
G21 ; set units to millimeters
G90 ; use absolute coordinates
M82 ; use absolute distances for extrusion
G92 E0
G1 Z0.400 F7800.000
G1 E-2.00000 F2400.00000
G92 E0
G1 X70.897 Y81.308 F7800.000
G1 E2.00000 F2400.00000
G1 X73.114 Y80.315 E2.28854 F1800.000
G1 X75.000 Y80.072 E2.51434
G1 X125.000 Y80.072 E8.45259
G1 X127.397 Y80.469 E8.74114
G1 X129.537 Y81.618 E9.02968 F1800.000
G1 X131.192 Y83.397 E9.31823
G1 X132.185 Y85.614 E9.60677
G1 X132.428 Y87.500 E9.83256
G1 X132.428 Y112.500 E12.80169
G1 X132.031 Y114.897 E13.09024
G1 X130.882 Y117.037 E13.37878
G1 X129.103 Y118.692 E13.66733
G1 X126.886 Y119.685 E13.95587
G1 X125.000 Y119.928 E14.18166
G1 X75.000 Y119.928 E20.11992
G1 X72.603 Y119.531 E20.40846
G1 X70.463 Y118.382 E20.69701
G1 X68.808 Y116.603 E20.98555
G1 X67.815 Y114.386 E21.27410
G1 X67.572 Y112.500 E21.49989
G1 X67.572 Y87.500 E24.46902
G1 X67.969 Y85.103 E24.75756
G1 X69.118 Y82.963 E25.04611
G1 X70.842 Y81.359 E25.32574
G1 X71.390 Y81.885 F7800.000
G1 X71.583 Y81.720 E25.35585 F1800.000
G1 X73.743 Y80.905 E25.63008
G1 X75.000 Y80.786 E25.78004
G1 X125.000 Y80.786 E31.71830
G1 X127.275 Y81.183 E31.99253
G1 X129.280 Y82.327 E32.26675 F1800.000
G1 X130.780 Y84.083 E32.54098
G1 X131.595 Y86.243 E32.81520
G1 X131.714 Y87.500 E32.96517
G1 X131.714 Y112.500 E35.93430
G1 X131.317 Y114.775 E36.20852
G1 X130.173 Y116.780 E36.48275
G1 X128.417 Y118.280 E36.75697
G1 X126.257 Y119.095 E37.03120
G1 X125.000 Y119.214 E37.18116
G1 X75.000 Y119.214 E43.11942
G1 X72.725 Y118.817 E43.39365
G1 X70.720 Y117.673 E43.66787
G1 X69.220 Y115.917 E43.94210
G1 X68.405 Y113.757 E44.21632
G1 X68.286 Y112.500 E44.36629
G1 X68.286 Y87.500 E47.33542
G1 X68.683 Y85.225 E47.60964
G1 X69.827 Y83.220 E47.88387
G1 X71.333 Y81.934 E48.11908
G1 E46.11908 F2400.00000
G92 E0
G1 X74.852 Y87.143 F7800.000
G1 E2.00000 F2400.00000
G1 X125.148 Y87.143 E7.97339 F1800.000
G1 X125.357 Y87.352 E8.00852
G1 X125.357 Y112.648 E11.01279
G1 X125.148 Y112.857 E11.04792
G1 X74.852 Y112.857 E17.02131
G1 X74.643 Y112.648 E17.05644
G1 X74.643 Y87.352 E20.06070
G1 X74.799 Y87.196 E20.08693
G1 E18.08693 F2400.00000
G92 E0
G1 X102.377 Y103.592 F7800.000
G1 E2.00000 F2400.00000
G1 X101.736 Y103.950 E2.08732 F1800.000
G1 X101.042 Y104.195 E2.17465
G1 X100.318 Y104.319 E2.26197
G1 X99.582 Y104.319 E2.34929
G1 X98.858 Y104.195 E2.43661
G1 X98.164 Y103.950 E2.52394
G1 X97.523 Y103.592 E2.61126
G1 X96.950 Y103.130 E2.69858
G1 X96.465 Y102.578 E2.78590
G1 X96.079 Y101.952 E2.87323
G1 X95.805 Y101.269 E2.96055
G1 X95.650 Y100.551 E3.04787
G1 X95.619 Y99.816 E3.13520
G1 X95.712 Y99.087 E3.22252
G1 X95.932 Y98.370 E3.31152
G1 X96.292 Y97.682 E3.40382
G1 X96.696 Y97.136 E3.48442
G1 X97.227 Y96.627 E3.57175
G1 X97.836 Y96.216 E3.65907
G1 X98.506 Y95.913 E3.74639
G1 X99.217 Y95.727 E3.83372
G1 X99.950 Y95.665 E3.92104 F1800.000
G1 X100.683 Y95.727 E4.00836
G1 X101.408 Y95.916 E4.09737
G1 X102.111 Y96.247 E4.18966
G1 X102.673 Y96.627 E4.27027
G1 X103.204 Y97.136 E4.35759
G1 X103.641 Y97.727 E4.44491
G1 X103.972 Y98.384 E4.53224
G1 X104.188 Y99.087 E4.61956
G1 X104.281 Y99.816 E4.70688
G1 X104.250 Y100.551 E4.79420
G1 X104.095 Y101.269 E4.88153
G1 X103.821 Y101.952 E4.96885
G1 X103.435 Y102.578 E5.05617
G1 X102.950 Y103.130 E5.14349
G1 X102.436 Y103.544 E5.22191
G1 X101.976 Y102.998 F7800.000
G1 X101.440 Y103.297 E5.29479 F1800.000
G1 X100.862 Y103.501 E5.36768
G1 X100.257 Y103.605 E5.44056
G1 X99.643 Y103.605 E5.51345
G1 X99.038 Y103.501 E5.58633
G1 X98.460 Y103.297 E5.65922
G1 X97.924 Y102.998 E5.73210
G1 X97.446 Y102.612 E5.80499
G1 X97.041 Y102.151 E5.87787
G1 X96.719 Y101.629 E5.95076
G1 X96.490 Y101.059 E6.02364
G1 X96.361 Y100.460 E6.09653
G1 X96.335 Y99.846 E6.16941
G1 X96.413 Y99.238 E6.24230
G1 X96.595 Y98.643 E6.31621
G1 X96.899 Y98.062 E6.39406
G1 X97.234 Y97.610 E6.46089
G1 X97.677 Y97.185 E6.53377
G1 X98.185 Y96.841 E6.60666
G1 X98.745 Y96.588 E6.67954
G1 X99.339 Y96.434 E6.75243
G1 X99.950 Y96.382 E6.82531 F1800.000
G1 X100.561 Y96.434 E6.89819
G1 X101.164 Y96.591 E6.97210
G1 X101.757 Y96.870 E7.04996
G1 X102.223 Y97.185 E7.11679
G1 X102.666 Y97.610 E7.18967
G1 X103.031 Y98.103 E7.26256
G1 X103.307 Y98.651 E7.33544
G1 X103.487 Y99.238 E7.40832
G1 X103.565 Y99.846 E7.48121
G1 X103.539 Y100.460 E7.55409
G1 X103.410 Y101.059 E7.62698
G1 X103.181 Y101.629 E7.69986
G1 X102.859 Y102.151 E7.77275
G1 X102.454 Y102.612 E7.84563
G1 X102.034 Y102.951 E7.90961
G1 X101.575 Y102.404 F7800.000
G1 X101.145 Y102.644 E7.96806 F1800.000
G1 X100.681 Y102.808 E8.02650
G1 X100.196 Y102.891 E8.08495
G1 X99.704 Y102.891 E8.14340
G1 X99.219 Y102.808 E8.20184
G1 X98.755 Y102.644 E8.26029
G1 X98.325 Y102.404 E8.31874
G1 X97.942 Y102.095 E8.37718
G1 X97.617 Y101.725 E8.43563
G1 X97.359 Y101.306 E8.49408
G1 X97.176 Y100.850 E8.55252
G1 X97.072 Y100.369 E8.61097
G1 X97.051 Y99.877 E8.66942
G1 X97.114 Y99.389 E8.72786
G1 X97.259 Y98.915 E8.78668
G1 X97.506 Y98.442 E8.85010
G1 X97.772 Y98.083 E8.90314
G1 X98.127 Y97.743 E8.96158
G1 X98.535 Y97.467 E9.02003
G1 X98.983 Y97.264 E9.07848
G1 X99.460 Y97.140 E9.13692
G1 X99.950 Y97.099 E9.19537 F1800.000
G1 X100.440 Y97.140 E9.25382
G1 X100.920 Y97.265 E9.31263
G1 X101.403 Y97.492 E9.37605
G1 X101.773 Y97.743 E9.42909
G1 X102.128 Y98.083 E9.48754
G1 X102.421 Y98.479 E9.54599
G1 X102.642 Y98.918 E9.60443
G1 X102.786 Y99.389 E9.66288
G1 X102.849 Y99.877 E9.72133
G1 X102.828 Y100.369 E9.77977
G1 X102.724 Y100.850 E9.83822
G1 X102.541 Y101.306 E9.89667
G1 X102.283 Y101.725 E9.95511
G1 X101.958 Y102.095 E10.01356
G1 X101.633 Y102.357 E10.06310
G1 X101.596 Y102.896 F7800.000
G1 X123.172 Y110.672 F7800.000
G1 X76.828 Y110.672 E15.56708 F1800.000
G1 X76.828 Y89.328 E18.10193
G1 X123.172 Y89.328 E23.60590
G1 X123.172 Y110.597 E26.13184
G1 X123.886 Y111.386 F7800.000
G1 X76.114 Y111.386 E31.80546 F1800.000
G1 X76.114 Y88.614 E34.50994
G1 X123.886 Y88.614 E40.18355
G1 X123.886 Y111.311 E42.87913
G1 X124.600 Y112.100 F7800.000
G1 X75.400 Y112.100 E48.72237 F1800.000
G1 X75.400 Y87.900 E51.59649
G1 X124.600 Y87.900 E57.43974
G1 X124.600 Y112.025 E60.30495
G1 X124.167 Y111.850 F7800.000
G1 X122.736 Y90.107 F7800.000
G1 X122.393 Y89.764 E60.36311 F1800.000
G1 X121.374 Y89.764 E60.48537
G1 X122.736 Y91.126 E60.71644
G1 X122.736 Y92.146 E60.83870
G1 X120.354 Y89.764 E61.24268
G1 X119.334 Y89.764 E61.36494
G1 X122.736 Y93.166 E61.94182
G1 X122.736 Y94.185 E62.06409
G1 X118.315 Y89.764 E62.81387
G1 X117.295 Y89.764 E62.93614
G1 X122.736 Y95.205 E63.85883
G1 X122.736 Y96.225 E63.98109
G1 X116.275 Y89.764 E65.07669
G1 X115.255 Y89.764 E65.19896
G1 X122.736 Y97.244 E66.46746
G1 X122.736 Y98.264 E66.58972
G1 X114.236 Y89.764 E68.03114
G1 X113.216 Y89.764 E68.15340
G1 X122.736 Y99.284 E69.76772
G1 X122.736 Y100.303 E69.88998
G1 X112.196 Y89.764 E71.67721
G1 X111.177 Y89.764 E71.79947
G1 X122.736 Y101.323 E73.75960
G1 X122.736 Y102.343 E73.88186
G1 X110.157 Y89.764 E76.01490
G1 X109.137 Y89.764 E76.13716
G1 X122.736 Y103.362 E78.44311
G1 X122.736 Y104.382 E78.56537
G1 X108.118 Y89.764 E81.04422
G1 X107.098 Y89.764 E81.16649
G1 X122.736 Y105.402 E83.81824
G1 X122.736 Y106.421 E83.94050
G1 X106.078 Y89.764 E86.76517
G1 X105.059 Y89.764 E86.88743
G1 X122.736 Y107.441 E89.88500
G1 X122.736 Y108.461 E90.00726
G1 X104.039 Y89.764 E93.17774
G1 X103.019 Y89.764 E93.30000
G1 X122.736 Y109.480 E96.64338
G1 X122.472 Y110.236 E96.73936
G1 X102.000 Y89.764 E100.21088
G1 X100.980 Y89.764 E100.33314
G1 X121.452 Y110.236 E103.80466
G1 X120.433 Y110.236 E103.92693
G1 X99.960 Y89.764 E107.39845
G1 X98.941 Y89.764 E107.52071
G1 X119.413 Y110.236 E110.99223
G1 X118.393 Y110.236 E111.11449
G1 X97.921 Y89.764 E114.58601
G1 X96.901 Y89.764 E114.70828
G1 X117.374 Y110.236 E118.17980
G1 X116.354 Y110.236 E118.30206
G1 X104.472 Y98.354 E120.31692
G1 X104.715 Y99.617 E120.47112
G1 X115.334 Y110.236 E122.27184
G1 X114.315 Y110.236 E122.39410
G1 X104.660 Y100.581 E124.03134
G1 X104.462 Y101.403 E124.13269
G1 X113.295 Y110.236 E125.63060
G1 X112.275 Y110.236 E125.75286
G1 X104.161 Y102.121 E127.12889
G1 X103.772 Y102.753 E127.21775
G1 X111.256 Y110.236 E128.48676
G1 X110.236 Y110.236 E128.60902
G1 X103.298 Y103.298 E129.78549
G1 X102.751 Y103.771 E129.87218
G1 X109.216 Y110.236 E130.96855
G1 X108.197 Y110.236 E131.09081
G1 X102.128 Y104.167 E132.11993
G1 X101.420 Y104.479 E132.21267
G1 X107.177 Y110.236 E133.18890
G1 X106.157 Y110.236 E133.31116
G1 X100.609 Y104.687 E134.25206
G1 X99.656 Y104.755 E134.36653
G1 X105.138 Y110.236 E135.29601
G1 X104.118 Y110.236 E135.41827
G1 X98.462 Y104.580 E136.37744
G1 X95.371 Y101.489 F7800.000
G1 X83.646 Y89.764 E138.36564 F1800.000
G1 X82.626 Y89.764 E138.48791
G1 X103.098 Y110.236 E141.95943
G1 X102.079 Y110.236 E142.08169
G1 X81.606 Y89.764 E145.55321
G1 X80.587 Y89.764 E145.67547
G1 X101.059 Y110.236 E149.14699
G1 X100.039 Y110.236 E149.26926
G1 X79.567 Y89.764 E152.74078
G1 X78.547 Y89.764 E152.86304
G1 X99.020 Y110.236 E156.33456
G1 X98.000 Y110.236 E156.45682
G1 X77.528 Y89.764 E159.92834
G1 X77.264 Y90.520 E160.02432
G1 X96.980 Y110.236 E163.36770
G1 X95.961 Y110.236 E163.48996
G1 X77.264 Y91.539 E166.66043
G1 X77.264 Y92.559 E166.78270
G1 X94.941 Y110.236 E169.78026
G1 X93.921 Y110.236 E169.90253
G1 X77.264 Y93.579 E172.72718
G1 X77.264 Y94.598 E172.84945
G1 X92.902 Y110.236 E175.50120
G1 X91.882 Y110.236 E175.62346
G1 X77.264 Y95.618 E178.10231
G1 X77.264 Y96.638 E178.22457
G1 X90.862 Y110.236 E180.53051
G1 X89.843 Y110.236 E180.65277
G1 X77.264 Y97.657 E182.78581
G1 X77.264 Y98.677 E182.90807
G1 X88.823 Y110.236 E184.86820
G1 X87.803 Y110.236 E184.99046
G1 X77.264 Y99.697 E186.77768
G1 X77.264 Y100.716 E186.89995
G1 X86.784 Y110.236 E188.51426
G1 X85.764 Y110.236 E188.63652
G1 X77.264 Y101.736 E190.07793
G1 X77.264 Y102.756 E190.20020
G1 X84.744 Y110.236 E191.46870
G1 X83.725 Y110.236 E191.59096
G1 X77.264 Y103.775 E192.68656
G1 X77.264 Y104.795 E192.80882
G1 X82.705 Y110.236 E193.73151
G1 X81.685 Y110.236 E193.85377
G1 X77.264 Y105.815 E194.60355
G1 X77.264 Y106.834 E194.72582
G1 X80.666 Y110.236 E195.30269
G1 X79.646 Y110.236 E195.42496
G1 X77.264 Y107.854 E195.82893
G1 X77.264 Y108.874 E195.95119
G1 X78.626 Y110.236 E196.18225
G1 X77.607 Y110.236 E196.30452
G1 X77.264 Y109.893 E196.36268
G1 X95.197 Y100.295 F7800.000
G1 X84.665 Y89.764 E198.14849 F1800.000
G1 X85.685 Y89.764 E198.27076
G1 X95.259 Y99.338 E199.89425
G1 X95.468 Y98.527 E199.99468
G1 X86.705 Y89.764 E201.48063
G1 X87.724 Y89.764 E201.60289
G1 X95.786 Y97.825 E202.96981
G1 X96.181 Y97.201 E203.05840
G1 X88.744 Y89.764 E204.31952
G1 X89.764 Y89.764 E204.44179
G1 X96.657 Y96.657 E205.61066
G1 X97.206 Y96.187 E205.69737
G1 X90.783 Y89.764 E206.78648
G1 X91.803 Y89.764 E206.90874
G1 X97.832 Y95.793 E207.93110
G1 X98.546 Y95.487 E208.02419
G1 X92.823 Y89.764 E208.99463
G1 X93.842 Y89.764 E209.11689
G1 X99.368 Y95.290 E210.05394
G1 X100.347 Y95.248 E210.17133
G1 X94.862 Y89.764 E211.10133
G1 X95.882 Y89.764 E211.22360
G1 X101.586 Y95.468 E212.19088
G1 Z0.400 F7800.000
G1 Z0.600 F7800.000
G1 X103.696 Y101.889 F7800.000
G1 X103.323 Y102.495 E212.23864 F900.000
G1 X102.853 Y103.029 E212.28639
G1 X102.299 Y103.476 E212.33414
G1 X101.678 Y103.823 E212.38190
G1 X101.007 Y104.060 E212.42965
G1 X100.306 Y104.180 E212.47740
G1 X99.594 Y104.180 E212.52515
G1 X98.893 Y104.060 E212.57291
G1 X98.222 Y103.823 E212.62066
G1 X97.601 Y103.476 E212.66841
G1 X97.047 Y103.029 E212.71616
G1 X96.577 Y102.495 E212.76392
G1 X96.204 Y101.889 E212.81167
G1 X95.939 Y101.228 E212.85942
G1 X95.789 Y100.533 E212.90717
G1 X95.759 Y99.822 E212.95493
G1 X95.849 Y99.116 E213.00268
G1 X96.057 Y98.436 E213.05043
G1 X96.378 Y97.800 E213.09818
G1 X96.801 Y97.228 E213.14593
G1 X97.314 Y96.736 E213.19369
G1 X97.904 Y96.337 E213.24144
G1 X98.552 Y96.044 E213.28919
G1 X99.241 Y95.865 E213.33694
G1 X99.950 Y95.805 E213.38470 F900.000
G1 X100.659 Y95.865 E213.43245
G1 X101.348 Y96.044 E213.48020
G1 X101.996 Y96.337 E213.52795
G1 X102.203 Y96.477 E213.54472
G1 X102.586 Y96.736 E213.57571
G1 X103.099 Y97.228 E213.62346
G1 X103.522 Y97.800 E213.67121
G1 X103.843 Y98.436 E213.71897
G1 X104.051 Y99.116 E213.76672
G1 X104.141 Y99.822 E213.81447
G1 X104.111 Y100.533 E213.86222
G1 X103.961 Y101.228 E213.90998
G1 X103.724 Y101.819 E213.95269
G1 X102.973 Y101.524 F7800.000
G1 X102.672 Y102.013 E213.99123 F900.000
G1 X102.292 Y102.444 E214.02976
G1 X101.846 Y102.805 E214.06829
G1 X101.344 Y103.085 E214.10683
G1 X100.803 Y103.276 E214.14536
G1 X100.237 Y103.373 E214.18389
G1 X99.663 Y103.373 E214.22242
G1 X99.097 Y103.276 E214.26096
G1 X98.556 Y103.085 E214.29949
G1 X98.054 Y102.805 E214.33802
G1 X97.608 Y102.444 E214.37655
G1 X97.228 Y102.013 E214.41509
G1 X96.927 Y101.524 E214.45362
G1 X96.713 Y100.991 E214.49215
G1 X96.592 Y100.430 E214.53069
G1 X96.568 Y99.856 E214.56922
G1 X96.641 Y99.287 E214.60775
G1 X96.809 Y98.738 E214.64628
G1 X97.067 Y98.225 E214.68482
G1 X97.409 Y97.763 E214.72335
G1 X97.823 Y97.366 E214.76188
G1 X98.299 Y97.045 E214.80041
G1 X98.822 Y96.808 E214.83895
G1 X99.378 Y96.663 E214.87748
G1 X99.950 Y96.615 E214.91601 F900.000
G1 X100.522 Y96.663 E214.95455
G1 X101.078 Y96.808 E214.99308
G1 X101.601 Y97.045 E215.03161
G1 X101.751 Y97.146 E215.04376
G1 X102.077 Y97.366 E215.07014
G1 X102.491 Y97.763 E215.10868
G1 X102.833 Y98.225 E215.14721
G1 X103.091 Y98.738 E215.18574
G1 X103.259 Y99.287 E215.22427
G1 X103.332 Y99.856 E215.26281
G1 X103.308 Y100.430 E215.30134
G1 X103.187 Y100.991 E215.33987
G1 X103.001 Y101.454 E215.37337
G1 X102.406 Y101.238 F7800.000
G1 X102.162 Y101.636 E215.39111 F900.000
G1 X101.853 Y101.986 E215.40884
G1 X101.490 Y102.279 E215.42657
G1 X101.083 Y102.507 E215.44430
G1 X100.643 Y102.662 E215.46204
G1 X100.183 Y102.741 E215.47977
G1 X99.717 Y102.741 E215.49750
G1 X99.257 Y102.662 E215.51524
G1 X98.817 Y102.507 E215.53297
G1 X98.410 Y102.279 E215.55070
G1 X98.047 Y101.986 E215.56844
G1 X97.738 Y101.636 E215.58617
G1 X97.494 Y101.238 E215.60390
G1 X97.320 Y100.806 E215.62164
G1 X97.221 Y100.349 E215.63937
G1 X97.202 Y99.883 E215.65710
G1 X97.261 Y99.420 E215.67484
G1 X97.397 Y98.974 E215.69257
G1 X97.608 Y98.558 E215.71030
G1 X97.885 Y98.183 E215.72804
G1 X98.222 Y97.860 E215.74577
G1 X98.608 Y97.598 E215.76350
G1 X99.034 Y97.406 E215.78124
G1 X99.485 Y97.289 E215.79897
G1 X99.950 Y97.249 E215.81670 F900.000
G1 X100.415 Y97.289 E215.83444
G1 X100.866 Y97.406 E215.85217
G1 X101.292 Y97.598 E215.86990
G1 X101.397 Y97.670 E215.87474
G1 X101.678 Y97.860 E215.88764
G1 X102.015 Y98.183 E215.90537
G1 X102.292 Y98.558 E215.92310
G1 X102.503 Y98.974 E215.94083
G1 X102.639 Y99.420 E215.95857
G1 X102.698 Y99.883 E215.97630
G1 X102.679 Y100.349 E215.99403
G1 X102.580 Y100.806 E216.01177
G1 X102.434 Y101.169 E216.02665
G1 X102.651 Y101.636 F7800.000
G1 X123.311 Y110.811 F7800.000
G1 X76.689 Y110.811 E219.15538 F3600.000
G1 X76.689 Y89.189 E220.60639
G1 X123.311 Y89.189 E223.73512
G1 X123.311 Y110.736 E225.18110
G1 X124.118 Y111.618 F7800.000
G1 X75.882 Y111.618 E228.41815 F3600.000
G1 X75.882 Y88.382 E229.97749
G1 X124.118 Y88.382 E233.21454
G1 X124.118 Y111.543 E234.76884
G1 X124.750 Y112.250 F7800.000
G1 X75.250 Y112.250 E236.65016 F1800.000
G1 X75.250 Y87.750 E237.58131
