; generated by Slic3r 1.2.9 on 2017-06-17 at 22:31:26

; external perimeters extrusion width = 0.50mm
; perimeters extrusion width = 0.85mm
; infill extrusion width = 1.02mm
; solid infill extrusion width = 0.85mm
; top infill extrusion width = 0.85mm

M107
M104 S200 ; set temperature
G28 ; home all axes
G1 Z5 F5000 ; lift nozzle

M109 S200 ; wait for temperature to be reached
G21 ; set units to millimeters
G90 ; use absolute coordinates
M82 ; use absolute distances for extrusion
G92 E0
G1 Z0.350 F7800.000
G1 E-2.00000 F2400.00000
G92 E0
G1 X82.415 Y83.253 F7800.000
G1 E2.00000 F2400.00000
G1 X84.168 Y81.774 E2.20854 F1800.000
G1 X86.320 Y80.981 E2.41708
G1 X87.500 Y80.875 E2.52479
G1 X112.500 Y80.875 E4.79803
G1 X114.759 Y81.272 E5.00658
G1 X116.747 Y82.415 E5.21512 F1800.000
G1 X118.226 Y84.168 E5.42366
G1 X119.019 Y86.320 E5.63220
G1 X119.125 Y87.500 E5.73991
G1 X119.125 Y107.599 E7.56746
G1 X118.728 Y109.857 E7.77601
G1 X117.585 Y111.845 E7.98455
G1 X116.300 Y113.025 E8.14315
G1 X109.300 Y117.927 E8.92018
G1 X107.222 Y118.897 E9.12873
G1 X105.500 Y119.125 E9.28666
G1 X94.500 Y119.125 E10.28688
G1 X92.241 Y118.728 E10.49542
G1 X90.700 Y117.927 E10.65332
G1 X83.700 Y113.025 E11.43039
G1 X82.077 Y111.405 E11.63893
G1 X81.105 Y109.328 E11.84747
G1 X80.875 Y107.599 E12.00607
G1 X80.875 Y87.500 E13.83363
G1 X81.272 Y85.241 E14.04217
G1 X82.378 Y83.318 E14.24389
G1 E12.24389 F2400.00000
G92 E0
G1 X100.000 Y110.167 F7800.000
G1 E2.00000 F2400.00000
G1 X109.100 Y103.796 E3.01012 F1800.000
G1 X109.100 Y89.100 E4.34639
G1 X110.900 Y89.100 E4.51011
G1 X110.900 Y106.766 E6.11647
G1 X104.996 Y110.900 E6.77191
G1 X95.004 Y110.900 E7.68040
G1 X89.100 Y106.766 E8.33584
G1 X89.100 Y89.100 E9.94220
G1 X90.900 Y89.100 E10.10592
G1 X90.900 Y103.796 E11.44219
G1 X99.939 Y110.124 E12.44549
G1 X100.000 Y109.404 F7800.000
G1 X108.475 Y103.470 E13.38624 F1800.000
G1 X108.475 Y89.525 E14.65427
G1 X107.475 Y89.525 E14.74520
G1 X107.475 Y88.475 E14.84069
G1 X111.525 Y88.475 E15.20898
G1 X111.525 Y107.091 E16.90174
G1 X105.193 Y111.525 E17.60467
G1 X94.807 Y111.525 E18.54900
G1 X88.475 Y107.091 E19.25193
G1 X88.475 Y88.475 E20.94469
G1 X92.525 Y88.475 E21.31298
G1 X92.525 Y89.525 E21.40847
G1 X91.525 Y89.525 E21.49940
G1 X91.525 Y103.470 E22.76743
G1 X99.939 Y109.361 E23.70136
G1 X100.000 Y108.642 F7800.000
G1 X107.850 Y103.145 E24.57274 F1800.000
G1 X107.850 Y90.150 E25.75437
G1 X106.850 Y90.150 E25.84530
G1 X106.850 Y87.850 E26.05443
G1 X112.150 Y87.850 E26.53636
G1 X112.150 Y107.416 E28.31552
G1 X105.390 Y112.150 E29.06595
G1 X94.610 Y112.150 E30.04611
G1 X87.850 Y107.416 E30.79654
G1 X87.850 Y87.850 E32.57570
G1 X93.150 Y87.850 E33.05762
G1 X93.150 Y90.150 E33.26676
G1 X92.150 Y90.150 E33.35769
G1 X92.150 Y103.145 E34.53931
G1 X99.939 Y108.599 E35.40388
G1 X100.332 Y109.015 F7800.000
G1 X98.947 Y110.238 F7800.000
G1 X99.988 Y110.566 E35.50309 F1800.000
G1 X101.053 Y110.238 E35.60444
G1 X101.804 Y110.522 F7800.000
G1 X101.488 Y110.206 E35.64545 F1800.000
G1 X101.612 Y109.437 E35.71696
G1 X102.696 Y110.522 E35.85781
G1 X103.589 Y110.522 E35.93979
G1 X102.137 Y109.070 E36.12838
G1 X102.662 Y108.702 E36.18725
G1 X104.481 Y110.522 E36.42359
G1 X105.206 Y110.354 E36.49193
G1 X103.187 Y108.334 E36.75425
G1 X103.712 Y107.967 E36.81311
G1 X105.731 Y109.986 E37.07543
G1 X106.256 Y109.619 E37.13429
G1 X104.237 Y107.599 E37.39661
G1 X104.762 Y107.232 E37.45548
G1 X106.781 Y109.251 E37.71779
G1 X107.306 Y108.884 E37.77666
G1 X105.287 Y106.864 E38.03897
G1 X105.812 Y106.496 E38.09784
G1 X107.831 Y108.516 E38.36015
G1 X108.356 Y108.148 E38.41902
G1 X106.337 Y106.129 E38.68134
G1 X106.862 Y105.761 E38.74020
G1 X108.881 Y107.781 E39.00252
G1 X109.406 Y107.413 E39.06138
G1 X107.387 Y105.394 E39.32370
G1 X107.912 Y105.026 E39.38256
G1 X109.931 Y107.046 E39.64488
G1 X110.451 Y106.672 E39.70362
G1 X108.437 Y104.658 E39.96523
G1 X108.962 Y104.291 E40.02410
G1 X110.522 Y105.850 E40.22670
G1 X110.522 Y104.958 E40.30868
G1 X109.478 Y103.915 E40.44419
G1 X109.478 Y103.022 E40.52617
G1 X110.522 Y104.065 E40.66168
G1 X110.522 Y103.173 E40.74366
G1 X109.478 Y102.129 E40.87917
G1 X109.478 Y101.237 E40.96115
G1 X110.522 Y102.280 E41.09666
G1 X110.522 Y101.387 E41.17864
G1 X109.478 Y100.344 E41.31415
G1 X109.478 Y99.452 E41.39613
G1 X110.522 Y100.495 E41.53164
G1 X110.522 Y99.602 E41.61362
G1 X109.478 Y98.559 E41.74913
G1 X109.478 Y97.666 E41.83111
G1 X110.522 Y98.710 E41.96662
G1 X110.522 Y97.817 E42.04860
G1 X109.478 Y96.774 E42.18411
G1 X109.478 Y95.881 E42.26609
G1 X110.522 Y96.924 E42.40160
G1 X110.522 Y96.032 E42.48358
G1 X109.478 Y94.988 E42.61909
G1 X109.478 Y94.096 E42.70107
G1 X110.522 Y95.139 E42.83658
G1 X110.522 Y94.247 E42.91856
G1 X109.478 Y93.203 E43.05407
G1 X109.478 Y92.311 E43.13605
G1 X110.522 Y93.354 E43.27156
G1 X110.522 Y92.461 E43.35355
G1 X109.478 Y91.418 E43.48905
G1 X109.478 Y90.525 E43.57104
G1 X110.522 Y91.569 E43.70655
G1 X110.522 Y90.676 E43.78853
G1 X109.478 Y89.633 E43.92404
G1 X110.217 Y89.478 E43.99330
G1 X110.522 Y89.783 E44.03293
G1 E42.03293 F2400.00000
G92 E0
G1 X90.522 Y89.783 F7800.000
G1 E2.00000 F2400.00000
G1 X90.217 Y89.478 E2.04112 F1800.000
G1 X89.478 Y89.666 E2.11371
G1 X90.522 Y90.710 E2.25430
G1 X90.522 Y91.636 E2.34256
G1 X89.478 Y90.592 E2.48316
G1 X89.478 Y91.519 E2.57141
G1 X90.522 Y92.562 E2.71201
G1 X90.522 Y93.488 E2.80026
G1 X89.478 Y92.445 E2.94086
G1 X89.478 Y93.371 E3.02912
G1 X90.522 Y94.414 E3.16971
G1 X90.522 Y95.340 E3.25797
G1 X89.478 Y94.297 E3.39857
G1 X89.478 Y95.223 E3.48682
G1 X90.522 Y96.266 E3.62742
G1 X90.522 Y97.193 E3.71567
G1 X89.478 Y96.149 E3.85627
G1 X89.478 Y97.075 E3.94453
G1 X90.522 Y98.119 E4.08513
G1 X90.522 Y99.045 E4.17338
G1 X89.478 Y98.002 E4.31398
G1 X89.478 Y98.928 E4.40223
G1 X90.522 Y99.971 E4.54283
G1 X90.522 Y100.897 E4.63108
G1 X89.478 Y99.854 E4.77168
G1 X89.478 Y100.780 E4.85994
G1 X90.522 Y101.823 E5.00054
G1 X90.522 Y102.749 E5.08879
G1 X89.478 Y101.706 E5.22939
G1 X89.478 Y102.632 E5.31764
G1 X90.522 Y103.675 E5.45824
G1 X89.478 Y103.558 E5.55828
G1 X96.442 Y110.522 E6.49669
G1 X97.368 Y110.522 E6.58495
G1 X91.987 Y105.140 E7.31013
G1 X89.478 Y105.411 F7800.000
G1 X92.934 Y108.866 E7.77585 F1800.000
G1 X95.076 Y107.304 F7800.000
G1 X98.294 Y110.522 E8.20953 F1800.000
G1 X98.670 Y109.971 E8.27303
G1 X98.165 Y109.467 E8.34102
G1 X95.516 Y110.522 F7800.000
G1 X89.478 Y104.484 E9.15462 F1800.000
G1 X89.478 Y106.337 F7800.000
G1 X89.845 Y106.703 E9.20402 F1800.000
G1 Z0.550 F7800.000
G1 X100.000 Y110.276 F7800.000
G1 X109.189 Y103.842 E9.95684 F3600.000
G1 X109.189 Y89.189 E10.94018
G1 X110.811 Y89.189 E11.04901
G1 X110.811 Y106.719 E12.22543
G1 X104.967 Y110.811 E12.70415
G1 X95.033 Y110.811 E13.37087
G1 X89.189 Y106.719 E13.84959
G1 X89.189 Y89.189 E15.02601
G1 X90.811 Y89.189 E15.13484
G1 X90.811 Y103.842 E16.11818
G1 X99.939 Y110.233 E16.86597
G1 X100.000 Y109.291 F7800.000
G1 X108.382 Y103.422 E17.55267 F3600.000
G1 X108.382 Y89.618 E18.47904
G1 X107.382 Y89.618 E18.54615
G1 X107.382 Y88.382 E18.62909
G1 X111.618 Y88.382 E18.91335
G1 X111.618 Y107.139 E20.17213
G1 X105.222 Y111.618 E20.69613
G1 X94.778 Y111.618 E21.39700
G1 X88.382 Y107.139 E21.92099
G1 X88.382 Y88.382 E23.17977
G1 X92.618 Y88.382 E23.46404
G1 X92.618 Y89.618 E23.54697
G1 X91.618 Y89.618 E23.61408
G1 X91.618 Y103.422 E24.54045
G1 X99.939 Y109.248 E25.22212
G1 X100.000 Y108.519 F7800.000
G1 X107.750 Y103.093 E25.58170 F1800.000
G1 X107.750 Y90.250 E26.06981
G1 X106.750 Y90.250 E26.10782
G1 X106.750 Y87.750 E26.20283
G1 X112.250 Y87.750 E26.41187
G1 X112.250 Y107.468 E27.16129
G1 X105.421 Y112.250 E27.47813
G1 X94.579 Y112.250 E27.89021
G1 X87.750 Y107.468 E28.20704
G1 X87.750 Y87.750 E28.95647
G1 X93.250 Y87.750 E29.16550
G1 X93.250 Y90.250 E29.26052
G1 X92.250 Y90.250 E29.29853
G1 X92.250 Y103.093 E29.78664
G1 X99.939 Y108.476 E30.14336
G1 X100.332 Y108.893 F7800.000
G1 X101.241 Y110.296 F7800.000
G1 X101.665 Y109.872 E30.18697 F1200.000
G1 X102.459 Y110.316 E30.25313
G1 X105.793 Y106.982 E30.59618
G1 X105.745 Y109.505 F7800.000
G1 X110.316 Y104.933 E31.06655 F1200.000
G1 X110.316 Y106.171 E31.15658
G1 X109.872 Y106.615 E31.20225
G1 X109.750 Y104.262 F7800.000
G1 X103.696 Y110.316 E31.82520 F1200.000
G1 X110.000 Y103.767 F7800.000
G1 X110.000 Y89.593 E33.77822 F1200.000
G1 E31.77822 F2400.00000
G92 E0
G1 X90.000 Y89.593 F7800.000
G1 E2.00000 F2400.00000
G1 X90.000 Y103.767 E3.95302 F1200.000
G1 X90.066 Y104.262 F7800.000
G1 X89.684 Y104.644 E3.99113 F1200.000
G1 X89.684 Y105.843 E4.07562
G1 X91.018 Y104.509 E4.20857
G1 X91.723 Y105.003 E4.26923
G1 X89.977 Y106.749 E4.44327
G1 X90.682 Y107.242 E4.50393
G1 X92.428 Y105.496 E4.67797
G1 X93.133 Y105.990 E4.73863
G1 X91.387 Y107.736 E4.91267
G1 X92.092 Y108.230 E4.97333
G1 X93.838 Y106.484 E5.14737
G1 X94.543 Y106.977 E5.20803
G1 X92.797 Y108.723 E5.38208
G1 X93.502 Y109.217 E5.44274
G1 X95.248 Y107.471 E5.61678
G1 X95.953 Y107.965 E5.67744
G1 X94.207 Y109.711 E5.85148
G1 X94.912 Y110.204 E5.91214
G1 X96.658 Y108.458 E6.08618
G1 X97.363 Y108.952 E6.14684
G1 X95.999 Y110.316 E6.28281
G1 X97.198 Y110.316 E6.36729
G1 X98.068 Y109.446 E6.45405
G1 X98.759 Y109.954 E6.51448
G1 X98.396 Y110.316 E6.55060
G1 Z0.750 F7800.000
G1 X100.000 Y110.276 F7800.000
G1 X109.189 Y103.842 E7.30342 F3600.000
G1 X109.189 Y89.189 E8.28676
G1 X110.811 Y89.189 E8.39559
G1 X110.811 Y106.719 E9.57201
G1 X104.967 Y110.811 E10.05074
G1 X95.033 Y110.811 E10.71745
G1 X89.189 Y106.719 E11.19617
G1 X89.189 Y89.189 E12.37260
G1 X90.811 Y89.189 E12.48143
G1 X90.811 Y103.842 E13.46477
G1 X99.939 Y110.233 E14.21256
G1 X100.000 Y109.291 F7800.000
G1 X108.382 Y103.422 E14.89926 F3600.000
G1 X108.382 Y89.618 E15.82563
G1 X107.382 Y89.618 E15.89274
G1 X107.382 Y88.382 E15.97567
G1 X111.618 Y88.382 E16.25994
G1 X111.618 Y107.139 E17.51872
G1 X105.222 Y111.618 E18.04271
G1 X94.778 Y111.618 E18.74358
G1 X88.382 Y107.139 E19.26758
G1 X88.382 Y88.382 E20.52636
G1 X92.618 Y88.382 E20.81062
G1 X92.618 Y89.618 E20.89356
G1 X91.618 Y89.618 E20.96067
G1 X91.618 Y103.422 E21.88704
G1 X99.939 Y109.248 E22.56871
G1 X100.000 Y108.519 F7800.000
G1 X107.750 Y103.093 E22.92828 F1800.000
G1 X107.750 Y90.250 E23.41639
G1 X106.750 Y90.250 E23.45440
G1 X106.750 Y87.750 E23.54942
G1 X112.250 Y87.750 E23.75845
G1 X112.250 Y107.468 E24.50787
G1 X105.421 Y112.250 E24.82471
G1 X94.579 Y112.250 E25.23679
G1 X87.750 Y107.468 E25.55363
G1 X87.750 Y87.750 E26.30305
G1 X93.250 Y87.750 E26.51209
G1 X93.250 Y90.250 E26.60710
G1 X92.250 Y90.250 E26.64511
G1 X92.250 Y103.093 E27.13322
G1 X99.939 Y108.476 E27.48995
G1 X100.332 Y108.893 F7800.000
G1 X101.241 Y109.954 F7800.000
G1 X101.604 Y110.316 E27.52607 F1200.000
G1 X102.802 Y110.316 E27.61055
G1 X101.932 Y109.446 E27.69731
G1 X102.637 Y108.952 E27.75797
G1 X104.001 Y110.316 E27.89393
G1 X105.088 Y110.204 E27.97095
G1 X103.342 Y108.458 E28.14499
G1 X104.047 Y107.965 E28.20566
G1 X105.793 Y109.711 E28.37970
G1 X106.498 Y109.217 E28.44036
G1 X104.752 Y107.471 E28.61440
G1 X105.457 Y106.977 E28.67506
G1 X107.203 Y108.723 E28.84910
G1 X107.908 Y108.230 E28.90976
G1 X106.162 Y106.484 E29.08380
G1 X106.867 Y105.990 E29.14446
G1 X108.613 Y107.736 E29.31850
G1 X109.318 Y107.242 E29.37916
G1 X107.572 Y105.496 E29.55321
G1 X108.277 Y105.003 E29.61387
G1 X110.023 Y106.749 E29.78791
G1 X110.316 Y105.843 E29.85501
G1 X108.982 Y104.509 E29.98796
G1 X109.934 Y104.262 E30.05725
G1 X110.316 Y104.644 E30.09536
G1 X110.000 Y103.767 F7800.000
G1 X110.000 Y89.593 E32.04838 F1200.000
G1 E30.04838 F2400.00000
G92 E0
G1 X90.000 Y89.593 F7800.000
G1 E2.00000 F2400.00000
G1 X90.000 Y103.767 E3.95302 F1200.000
G1 X89.684 Y106.171 F7800.000
G1 X90.128 Y106.615 E3.99869 F1200.000
G1 X94.207 Y106.982 F7800.000
G1 X97.541 Y110.316 E4.34174 F1200.000
G1 X98.335 Y109.872 E4.40789
G1 X98.759 Y110.296 E4.45150
G1 X96.304 Y110.316 F7800.000
G1 X90.250 Y104.262 E5.07445 F1200.000
G1 X89.684 Y104.933 E5.13835
G1 X94.255 Y109.505 E5.60872
M106 S229.5
G1 Z0.950 F7800.000
G1 X100.000 Y110.276 F7800.000
G1 X109.189 Y103.842 E6.36154 F3600.000
G1 X109.189 Y89.189 E7.34488
G1 X110.811 Y89.189 E7.45371
G1 X110.811 Y106.719 E8.63013
G1 X104.967 Y110.811 E9.10886
G1 X95.033 Y110.811 E9.77557
G1 X89.189 Y106.719 E10.25429
G1 X89.189 Y89.189 E11.43072
G1 X90.811 Y89.189 E11.53955
G1 X90.811 Y103.842 E12.52289
G1 X99.939 Y110.233 E13.27068
G1 X100.000 Y109.291 F7800.000
G1 X108.382 Y103.422 E13.95738 F3600.000
G1 X108.382 Y89.618 E14.88375
G1 X107.382 Y89.618 E14.95086
G1 X107.382 Y88.382 E15.03379
G1 X111.618 Y88.382 E15.31806
G1 X111.618 Y107.139 E16.57684
G1 X105.222 Y111.618 E17.10083
G1 X94.778 Y111.618 E17.80170
G1 X88.382 Y107.139 E18.32570
G1 X88.382 Y88.382 E19.58448
G1 X92.618 Y88.382 E19.86874
G1 X92.618 Y89.618 E19.95168
G1 X91.618 Y89.618 E20.01879
G1 X91.618 Y103.422 E20.94516
G1 X99.939 Y109.248 E21.62682
G1 X100.000 Y108.519 F7800.000
G1 X107.750 Y103.093 E21.98640 F1800.000
G1 X107.750 Y90.250 E22.47451
G1 X106.750 Y90.250 E22.51252
G1 X106.750 Y87.750 E22.60754
G1 X112.250 Y87.750 E22.81657
G1 X112.250 Y107.468 E23.56599
G1 X105.421 Y112.250 E23.88283
G1 X94.579 Y112.250 E24.29491
G1 X87.750 Y107.468 E24.61175
G1 X87.750 Y87.750 E25.36117
G1 X93.250 Y87.750 E25.57021
G1 X93.250 Y90.250 E25.66522
G1 X92.250 Y90.250 E25.70323
G1 X92.250 Y103.093 E26.19134
G1 X99.939 Y108.476 E26.54807
G1 X100.332 Y108.893 F7800.000
G1 X101.241 Y110.296 F7800.000
G1 X101.665 Y109.872 E26.59168 F1200.000
G1 X102.459 Y110.316 E26.65783
G1 X105.793 Y106.982 E27.00087
G1 X105.745 Y109.505 F7800.000
G1 X110.316 Y104.933 E27.47124 F1200.000
G1 X110.316 Y106.171 E27.56127
G1 X109.872 Y106.615 E27.60694
G1 X109.750 Y104.262 F7800.000
G1 X103.696 Y110.316 E28.22988 F1200.000
G1 X110.000 Y103.767 F7800.000
G1 X110.000 Y89.593 E30.18290 F1200.000
G1 E28.18290 F2400.00000
G92 E0
G1 X90.000 Y89.593 F7800.000
G1 E2.00000 F2400.00000
G1 X90.000 Y103.767 E3.95302 F1200.000
G1 X90.066 Y104.262 F7800.000
G1 X89.684 Y104.644 E3.99113 F1200.000
G1 X89.684 Y105.843 E4.07562
G1 X91.018 Y104.509 E4.20856
G1 X91.723 Y105.003 E4.26922
G1 X89.977 Y106.749 E4.44326
G1 X90.682 Y107.242 E4.50392
G1 X92.428 Y105.496 E4.67796
G1 X93.133 Y105.990 E4.73862
G1 X91.387 Y107.736 E4.91266
G1 X92.092 Y108.230 E4.97332
G1 X93.838 Y106.484 E5.14736
G1 X94.543 Y106.977 E5.20802
G1 X92.797 Y108.723 E5.38206
G1 X93.502 Y109.217 E5.44272
G1 X95.248 Y107.471 E5.61676
G1 X95.953 Y107.965 E5.67742
G1 X94.207 Y109.711 E5.85146
G1 X94.912 Y110.204 E5.91212
G1 X96.658 Y108.458 E6.08616
G1 X97.363 Y108.952 E6.14682
G1 X95.999 Y110.316 E6.28278
G1 X97.198 Y110.316 E6.36726
G1 X98.068 Y109.446 E6.45402
G1 X98.759 Y109.954 E6.51445
G1 X98.396 Y110.316 E6.55057
G1 Z1.150 F7800.000
G1 X100.000 Y110.276 F7800.000
G1 X109.189 Y103.842 E7.30339 F3600.000
G1 X109.189 Y89.189 E8.28673
G1 X110.811 Y89.189 E8.39556
G1 X110.811 Y106.719 E9.57199
G1 X104.967 Y110.811 E10.05071
G1 X95.033 Y110.811 E10.71742
G1 X89.189 Y106.719 E11.19615
G1 X89.189 Y89.189 E12.37257
G1 X90.811 Y89.189 E12.48140
G1 X90.811 Y103.842 E13.46474
G1 X99.939 Y110.233 E14.21253
G1 X100.000 Y109.291 F7800.000
G1 X108.382 Y103.422 E14.89923 F3600.000
G1 X108.382 Y89.618 E15.82560
G1 X107.382 Y89.618 E15.89271
G1 X107.382 Y88.382 E15.97565
G1 X111.618 Y88.382 E16.25991
G1 X111.618 Y107.139 E17.51869
G1 X105.222 Y111.618 E18.04269
G1 X94.778 Y111.618 E18.74356
G1 X88.382 Y107.139 E19.26755
G1 X88.382 Y88.382 E20.52633
G1 X92.618 Y88.382 E20.81059
G1 X92.618 Y89.618 E20.89353
G1 X91.618 Y89.618 E20.96064
G1 X91.618 Y103.422 E21.88701
G1 X99.939 Y109.248 E22.56868
G1 X100.000 Y108.519 F7800.000
